icons/production/bootstrap.svg

<?xml version="1.0" encoding="UTF-8" standalone="no"?>
<svg width="24px" height="24px" viewBox="0 0 24 24" version="1.1" xmlns="http://www.w3.org/2000/svg">
<!--Generator: Sketch 3.8.3 (29802) - http://www.bohemiancoding.com/sketch-->
    <title>
        bootstrap
    </title>
    <desc>
        Created with Sketch.
    </desc>
    <g id="Page-1" stroke="none" stroke-width="1" fill="none" fill-rule="evenodd">
        <path d="M2,4.99420208 C2,3.34054993 3.34331197,2 4.99420208,2 L19.0057979,2 C20.6594501,2 22,3.34331197 22,4.99420208 L22,19.0057979 C22,20.6594501 20.656688,22 19.0057979,22 L4.99420208,22 C3.34054993,22 2,20.656688 2,19.0057979 L2,4.99420208 L2,4.99420208 Z M14.4038419,5.70356409 C15.459036,5.87690179 16.1796132,6.22357719 16.6505555,6.7842716 C16.8506174,7.02128437 17.0843182,7.49177242 17.1816934,7.84198533 C17.2418891,8.07192309 17.2516266,8.20192637 17.2551675,8.77588641 C17.2587084,9.37991524 17.2516266,9.46923722 17.1816934,9.70625 C16.9780906,10.4137508 16.5337051,10.9567577 15.8157836,11.3777207 L15.5688045,11.5209896 L15.7458505,11.5775897 C16.0158456,11.667796 16.4673129,11.9012713 16.6974727,12.074609 C17.2719869,12.5079533 17.6721108,13.1818478 17.8323374,13.9857456 C17.9093525,14.3863679 17.9093525,15.2433283 17.8287965,15.6103444 C17.5118842,17.0545304 16.3929536,18.0582972 14.7101315,18.3952445 C14.0656841,18.5252478 13.8992608,18.5323228 10.4397822,18.5323228 L7.05820387,18.5323228 L7.05820387,5.62043274 L10.5575178,5.63369838 C13.6894613,5.64342652 14.0895853,5.65050153 14.4038419,5.70356409 L14.4038419,5.70356409 L14.4038419,5.70356409 Z M9.92988979,9.34542458 L9.92988979,10.8665513 L11.5427787,10.8532857 C13.0556367,10.8364826 13.1689461,10.8329451 13.4123844,10.7666169 C14.1736821,10.5596729 14.5038729,10.1227911 14.5038729,9.3224308 C14.5038729,8.70867384 14.2869915,8.311589 13.8160492,8.07811373 C13.3991059,7.87116974 12.9476386,7.82783531 11.1754083,7.82429781 L9.92988979,7.82429781 L9.92988979,9.34542458 L9.92988979,9.34542458 L9.92988979,9.34542458 Z M9.92988979,14.5623588 L9.92988979,16.333764 L11.6923826,16.3204983 C13.672642,16.3072327 13.7390342,16.3001577 14.2267959,16.0640293 C14.7880317,15.7907571 15.0376665,15.3432628 15.0376665,14.6127682 C15.0376665,13.6726765 14.6640995,13.151779 13.8027708,12.8917725 C13.5593325,12.8148317 13.5124153,12.8148317 11.7428407,12.8015661 L9.92988979,12.791838 L9.92988979,14.5632431 L9.92988979,14.5623588 L9.92988979,14.5623588 Z" id="bootstrap" fill="#000"/>
    </g>
</svg>

<svg xmlns="http://www.w3.org/2000/svg" viewBox="0 0 24 24">
    <path fill-rule="evenodd" d="M2 4.994A2.996 2.996 0 0 1 4.994 2h14.012A2.996 2.996 0 0 1 22 4.994v14.012A2.996 2.996 0 0 1 19.006 22H4.994A2.996 2.996 0 0 1 2 19.006V4.994zm12.404.71c1.055.173 1.776.52 2.247 1.08.2.237.433.708.53 1.058.06.23.07.36.074.934.004.604-.003.693-.073.93-.204.708-.648 1.25-1.366 1.672l-.247.143.177.057c.27.09.721.323.951.497.575.433.975 1.107 1.135 1.91.077.401.077 1.258-.003 1.625-.317 1.445-1.436 2.448-3.119 2.785-.644.13-.81.137-4.27.137H7.058V5.62l3.5.014c3.131.01 3.532.017 3.846.07zM9.93 9.345v1.522l1.613-.014c1.513-.017 1.626-.02 1.87-.086.76-.207 1.09-.644 1.09-1.445 0-.613-.216-1.01-.687-1.244-.417-.207-.868-.25-2.64-.254H9.93v1.521zm0 5.217v1.772l1.762-.014c1.98-.013 2.047-.02 2.535-.256.561-.273.81-.72.81-1.451 0-.94-.373-1.461-1.234-1.721-.244-.077-.29-.077-2.06-.09l-1.813-.01v1.771z"/>
</svg>
